X: 2
T: Emily's Welcome To Portland
R: reel
M: 4/4
L: 1/8
K: Fmaj
BGE|:~F2 FC ACFG|AFCA B2 GA|BGEC c2Bd|cBAG FEGE|
~F2 FC ACFG|AFCA B2 GA|BG c2 dBGF|ECGE F:|
cde|:fccf gccg|fcfg afcA|fBBf gBfg|acfa g2 ag|
fAAf gAAg|fAfg afcA|G2 =Bd gf ed|~c2 Bc A:|

